svgs/sharp-light/car.svg

<svg xmlns="http://www.w3.org/2000/svg" viewBox="0 0 512 512"><!--! Font Awesome Pro 6.6.0 by @fontawesome - https://fontawesome.com License - https://fontawesome.com/license (Commercial License) Copyright 2024 Fonticons, Inc. --><path d="M112 32l-11.9 0L96.7 43.4 52.1 192 32 192 0 192l0 32L0 384l0 16 0 16 0 64 32 0 0-64 448 0 0 64 32 0 0-64 0-16 0-16 0-160 0-32-32 0-20.1 0L415.3 43.4 411.9 32 400 32 112 32zM426.5 192l-341 0L123.9 64l264.2 0 38.4 128zM480 224l0 160L32 384l0-160 448 0zM104 320a24 24 0 1 0 0-48 24 24 0 1 0 0 48zm328-24a24 24 0 1 0 -48 0 24 24 0 1 0 48 0z"/></svg>

<svg xmlns="http://www.w3.org/2000/svg" viewBox="0 0 512 512"><!--! Font Awesome Pro 6.4.2 by @fontawesome - https://fontawesome.com License - https://fontawesome.com/license (Commercial License) Copyright 2023 Fonticons, Inc. --><path d="M112 32H100.1L96.7 43.4 52.1 192H32 0v32V384v16 16 64H32V416H480v64h32V416 400 384 224 192H480 459.9L415.3 43.4 411.9 32H400 112zM426.5 192H85.5L123.9 64H388.1l38.4 128zM480 224V384H32V224H480zM104 320a24 24 0 1 0 0-48 24 24 0 1 0 0 48zm328-24a24 24 0 1 0 -48 0 24 24 0 1 0 48 0z"/></svg>
